bernoullicharts/pow_x_2_4__bound.svg

<?xml version="1.0" encoding="utf-8" standalone="no"?>
<!DOCTYPE svg PUBLIC "-//W3C//DTD SVG 1.1//EN"
  "http://www.w3.org/Graphics/SVG/1.1/DTD/svg11.dtd">
<!-- Created with matplotlib (https://matplotlib.org/) -->
<svg height="345.6pt" version="1.1" viewBox="0 0 460.8 345.6" width="460.8pt" xmlns="http://www.w3.org/2000/svg" xmlns:xlink="http://www.w3.org/1999/xlink">
 <defs>
  <style type="text/css">
*{stroke-linecap:butt;stroke-linejoin:round;}
  </style>
 </defs>
 <g id="figure_1">
  <g id="patch_1">
   <path d="M 0 345.6 
L 460.8 345.6 
L 460.8 0 
L 0 0 
z
" style="fill:#ffffff;"/>
  </g>
  <g id="axes_1">
   <g id="patch_2">
    <path d="M 57.6 307.584 
L 414.72 307.584 
L 414.72 41.472 
L 57.6 41.472 
z
" style="fill:#ffffff;"/>
   </g>
   <g id="matplotlib.axis_1">
    <g id="xtick_1">
     <g id="line2d_1">
      <defs>
       <path d="M 0 0 
L 0 3.5 
" id="m406693fe84" style="stroke:#000000;stroke-width:0.8;"/>
      </defs>
      <g>
       <use style="stroke:#000000;stroke-width:0.8;" x="73.800255" xlink:href="#m406693fe84" y="307.584"/>
      </g>
     </g>
     <g id="text_1">
      <text style="font-family:DejaVu Sans;font-size:10px;font-style:normal;font-weight:normal;text-anchor:middle;" transform="rotate(-0, 73.800255, 322.182437)" x="73.800255" y="322.182437">0.0</text>
     </g>
    </g>
    <g id="xtick_2">
     <g id="line2d_2">
      <g>
       <use style="stroke:#000000;stroke-width:0.8;" x="138.744153" xlink:href="#m406693fe84" y="307.584"/>
      </g>
     </g>
     <g id="text_2">
      <text style="font-family:DejaVu Sans;font-size:10px;font-style:normal;font-weight:normal;text-anchor:middle;" transform="rotate(-0, 138.744153, 322.182437)" x="138.744153" y="322.182437">0.2</text>
     </g>
    </g>
    <g id="xtick_3">
     <g id="line2d_3">
      <g>
       <use style="stroke:#000000;stroke-width:0.8;" x="203.688051" xlink:href="#m406693fe84" y="307.584"/>
      </g>
     </g>
     <g id="text_3">
      <text style="font-family:DejaVu Sans;font-size:10px;font-style:normal;font-weight:normal;text-anchor:middle;" transform="rotate(-0, 203.688051, 322.182437)" x="203.688051" y="322.182437">0.4</text>
     </g>
    </g>
    <g id="xtick_4">
     <g id="line2d_4">
      <g>
       <use style="stroke:#000000;stroke-width:0.8;" x="268.631949" xlink:href="#m406693fe84" y="307.584"/>
      </g>
     </g>
     <g id="text_4">
      <text style="font-family:DejaVu Sans;font-size:10px;font-style:normal;font-weight:normal;text-anchor:middle;" transform="rotate(-0, 268.631949, 322.182437)" x="268.631949" y="322.182437">0.6</text>
     </g>
    </g>
    <g id="xtick_5">
     <g id="line2d_5">
      <g>
       <use style="stroke:#000000;stroke-width:0.8;" x="333.575847" xlink:href="#m406693fe84" y="307.584"/>
      </g>
     </g>
     <g id="text_5">
      <text style="font-family:DejaVu Sans;font-size:10px;font-style:normal;font-weight:normal;text-anchor:middle;" transform="rotate(-0, 333.575847, 322.182437)" x="333.575847" y="322.182437">0.8</text>
     </g>
    </g>
    <g id="xtick_6">
     <g id="line2d_6">
      <g>
       <use style="stroke:#000000;stroke-width:0.8;" x="398.519745" xlink:href="#m406693fe84" y="307.584"/>
      </g>
     </g>
     <g id="text_6">
      <text style="font-family:DejaVu Sans;font-size:10px;font-style:normal;font-weight:normal;text-anchor:middle;" transform="rotate(-0, 398.519745, 322.182437)" x="398.519745" y="322.182437">1.0</text>
     </g>
    </g>
    <g id="text_7">
     <text style="font-family:DejaVu Sans;font-size:10px;font-style:normal;font-weight:normal;text-anchor:middle;" transform="rotate(-0, 236.16, 335.860562)" x="236.16" y="335.860562">Input Coin's Heads Probability (λ)</text>
    </g>
   </g>
   <g id="matplotlib.axis_2">
    <g id="ytick_1">
     <g id="line2d_7">
      <defs>
       <path d="M 0 0 
L -3.5 0 
" id="m87747e8a4d" style="stroke:#000000;stroke-width:0.8;"/>
      </defs>
      <g>
       <use style="stroke:#000000;stroke-width:0.8;" x="57.6" xlink:href="#m87747e8a4d" y="296.513736"/>
      </g>
     </g>
     <g id="text_8">
      <text style="font-family:DejaVu Sans;font-size:10px;font-style:normal;font-weight:normal;text-anchor:end;" transform="rotate(-0, 50.6, 300.312955)" x="50.6" y="300.312955">0</text>
     </g>
    </g>
    <g id="ytick_2">
     <g id="line2d_8">
      <g>
       <use style="stroke:#000000;stroke-width:0.8;" x="57.6" xlink:href="#m87747e8a4d" y="255.485308"/>
      </g>
     </g>
     <g id="text_9">
      <text style="font-family:DejaVu Sans;font-size:10px;font-style:normal;font-weight:normal;text-anchor:end;" transform="rotate(-0, 50.6, 259.284527)" x="50.6" y="259.284527">20</text>
     </g>
    </g>
    <g id="ytick_3">
     <g id="line2d_9">
      <g>
       <use style="stroke:#000000;stroke-width:0.8;" x="57.6" xlink:href="#m87747e8a4d" y="214.456879"/>
      </g>
     </g>
     <g id="text_10">
      <text style="font-family:DejaVu Sans;font-size:10px;font-style:normal;font-weight:normal;text-anchor:end;" transform="rotate(-0, 50.6, 218.256098)" x="50.6" y="218.256098">40</text>
     </g>
    </g>
    <g id="ytick_4">
     <g id="line2d_10">
      <g>
       <use style="stroke:#000000;stroke-width:0.8;" x="57.6" xlink:href="#m87747e8a4d" y="173.428451"/>
      </g>
     </g>
     <g id="text_11">
      <text style="font-family:DejaVu Sans;font-size:10px;font-style:normal;font-weight:normal;text-anchor:end;" transform="rotate(-0, 50.6, 177.22767)" x="50.6" y="177.22767">60</text>
     </g>
    </g>
    <g id="ytick_5">
     <g id="line2d_11">
      <g>
       <use style="stroke:#000000;stroke-width:0.8;" x="57.6" xlink:href="#m87747e8a4d" y="132.400022"/>
      </g>
     </g>
     <g id="text_12">
      <text style="font-family:DejaVu Sans;font-size:10px;font-style:normal;font-weight:normal;text-anchor:end;" transform="rotate(-0, 50.6, 136.199241)" x="50.6" y="136.199241">80</text>
     </g>
    </g>
    <g id="ytick_6">
     <g id="line2d_12">
      <g>
       <use style="stroke:#000000;stroke-width:0.8;" x="57.6" xlink:href="#m87747e8a4d" y="91.371594"/>
      </g>
     </g>
     <g id="text_13">
      <text style="font-family:DejaVu Sans;font-size:10px;font-style:normal;font-weight:normal;text-anchor:end;" transform="rotate(-0, 50.6, 95.170813)" x="50.6" y="95.170813">100</text>
     </g>
    </g>
    <g id="ytick_7">
     <g id="line2d_13">
      <g>
       <use style="stroke:#000000;stroke-width:0.8;" x="57.6" xlink:href="#m87747e8a4d" y="50.343166"/>
      </g>
     </g>
     <g id="text_14">
      <text style="font-family:DejaVu Sans;font-size:10px;font-style:normal;font-weight:normal;text-anchor:end;" transform="rotate(-0, 50.6, 54.142384)" x="50.6" y="54.142384">120</text>
     </g>
    </g>
    <g id="text_15">
     <text style="font-family:DejaVu Sans;font-size:10px;font-style:normal;font-weight:normal;text-anchor:middle;" transform="rotate(-90, 25.432813, 174.528)" x="25.432813" y="174.528">Coin Flips Needed</text>
    </g>
   </g>
   <g id="line2d_14">
    <path clip-path="url(#pc364b70b9c)" d="M 73.832727 192.916954 
L 77.112066 290.92247 
L 80.391405 292.401138 
L 83.670744 293.059298 
L 86.950083 293.45235 
L 90.229421 293.720844 
L 93.50876 293.91916 
L 96.788099 294.073355 
L 100.067438 294.197687 
L 103.346777 294.300696 
L 106.626116 294.387856 
L 109.905455 294.462853 
L 113.184793 294.528276 
L 116.464132 294.586003 
L 119.743471 294.637433 
L 123.02281 294.683634 
L 126.302149 294.725436 
L 129.581488 294.763495 
L 132.860826 294.798339 
L 136.140165 294.830396 
L 139.419504 294.860018 
L 142.698843 294.8875 
L 145.978182 294.913086 
L 149.257521 294.936986 
L 152.53686 294.959377 
L 155.816198 294.980412 
L 159.095537 295.000221 
L 162.374876 295.01892 
L 165.654215 295.036608 
L 168.933554 295.053373 
L 172.212893 295.069293 
L 175.492231 295.084437 
L 178.77157 295.098866 
L 182.050909 295.112634 
L 185.330248 295.12579 
L 188.609587 295.138378 
L 191.888926 295.150438 
L 195.168264 295.162007 
L 198.447603 295.173115 
L 201.726942 295.183794 
L 205.006281 295.194069 
L 208.28562 295.203967 
L 211.564959 295.213509 
L 214.844298 295.222716 
L 218.123636 295.231608 
L 221.402975 295.240201 
L 224.682314 295.248513 
L 227.961653 295.256558 
L 231.240992 295.264351 
L 234.520331 295.271904 
L 237.799669 295.279229 
L 241.079008 295.286337 
L 244.358347 295.29324 
L 247.637686 295.299947 
L 250.917025 295.306466 
L 254.196364 295.312806 
L 257.475702 295.318977 
L 260.755041 295.324984 
L 264.03438 295.330835 
L 267.313719 295.336536 
L 270.593058 295.342095 
L 273.872397 295.347516 
L 277.151736 295.352806 
L 280.431074 295.357969 
L 283.710413 295.363011 
L 286.989752 295.367936 
L 290.269091 295.372748 
L 293.54843 295.377453 
L 296.827769 295.382053 
L 300.107107 295.386553 
L 303.386446 295.390956 
L 306.665785 295.395266 
L 309.945124 295.399486 
L 313.224463 295.403619 
L 316.503802 295.407668 
L 319.78314 295.411635 
L 323.062479 295.415524 
L 326.341818 295.419337 
L 329.621157 295.423076 
L 332.900496 295.426744 
L 336.179835 295.430344 
L 339.459174 295.433876 
L 342.738512 295.437344 
L 346.017851 295.440748 
L 349.29719 295.444092 
L 352.576529 295.447376 
L 355.855868 295.450604 
L 359.135207 295.453775 
L 362.414545 295.456892 
L 365.693884 295.459956 
L 368.973223 295.46297 
L 372.252562 295.465933 
L 375.531901 295.468848 
L 378.81124 295.471716 
L 382.090579 295.474538 
L 385.369917 295.477315 
L 388.649256 295.480049 
L 391.928595 295.48274 
L 395.207934 295.48539 
L 398.487273 295.488 
" style="fill:none;stroke:#1f77b4;stroke-linecap:square;stroke-width:1.5;"/>
   </g>
   <g id="line2d_15">
    <path clip-path="url(#pc364b70b9c)" d="M 73.832727 53.568 
L 77.112066 271.950016 
L 80.391405 282.43278 
L 83.670744 286.47408 
L 86.950083 286.396126 
L 90.229421 287.204386 
L 93.50876 287.421837 
L 96.788099 287.910075 
L 100.067438 289.255807 
L 103.346777 290.027142 
L 106.626116 289.436332 
L 109.905455 290.453837 
L 113.184793 290.864122 
L 116.464132 290.384089 
L 119.743471 291.65597 
L 123.02281 291.249789 
L 126.302149 291.676485 
L 129.581488 291.07747 
L 132.860826 291.705205 
L 136.140165 291.676485 
L 139.419504 291.91445 
L 142.698843 292.230368 
L 145.978182 292.127797 
L 149.257521 292.025226 
L 152.53686 292.476539 
L 155.816198 292.501156 
L 159.095537 292.788355 
L 162.374876 292.378071 
L 165.654215 292.460128 
L 168.933554 292.854001 
L 172.212893 293.034526 
L 175.492231 292.956572 
L 178.77157 292.874515 
L 182.050909 292.989394 
L 185.330248 293.165817 
L 188.609587 292.927852 
L 191.888926 293.206845 
L 195.168264 293.169919 
L 198.447603 293.161714 
L 201.726942 293.321725 
L 205.006281 293.227359 
L 208.28562 293.210948 
L 211.564959 293.47353 
L 214.844298 293.44481 
L 218.123636 293.440707 
L 221.402975 293.625335 
L 224.682314 293.518661 
L 227.961653 293.481735 
L 231.240992 293.489941 
L 234.520331 293.571998 
L 237.799669 293.7197 
L 241.079008 293.555587 
L 244.358347 293.588409 
L 247.637686 293.674569 
L 250.917025 293.801757 
L 254.196364 293.809963 
L 257.475702 293.69098 
L 260.755041 293.773037 
L 264.03438 293.686878 
L 267.313719 293.822271 
L 270.593058 293.957665 
L 273.872397 293.826374 
L 277.151736 293.974077 
L 280.431074 293.933048 
L 283.710413 293.928945 
L 286.989752 294.002797 
L 290.269091 294.084853 
L 293.54843 294.002797 
L 296.827769 293.974077 
L 300.107107 294.10947 
L 303.386446 294.125882 
L 306.665785 294.031516 
L 309.945124 294.16691 
L 313.224463 294.158705 
L 316.503802 294.064339 
L 319.78314 294.113573 
L 323.062479 294.142293 
L 326.341818 294.183322 
L 329.621157 294.183322 
L 332.900496 294.25307 
L 336.179835 294.19563 
L 339.459174 294.199733 
L 342.738512 294.257173 
L 346.017851 294.273584 
L 349.29719 294.31051 
L 352.576529 294.326921 
L 355.855868 294.322818 
L 359.135207 294.326921 
L 362.414545 294.351538 
L 365.693884 294.33923 
L 368.973223 294.347435 
L 372.252562 294.380258 
L 375.531901 294.376155 
L 378.81124 294.384361 
L 382.090579 294.400772 
L 385.369917 294.425389 
L 388.649256 294.425389 
L 391.928595 294.450006 
L 395.207934 294.458212 
L 398.487273 294.462315 
" style="fill:none;stroke:#ff7f0e;stroke-linecap:square;stroke-width:1.5;"/>
   </g>
   <g id="patch_3">
    <path d="M 57.6 307.584 
L 57.6 41.472 
" style="fill:none;stroke:#000000;stroke-linecap:square;stroke-linejoin:miter;stroke-width:0.8;"/>
   </g>
   <g id="patch_4">
    <path d="M 414.72 307.584 
L 414.72 41.472 
" style="fill:none;stroke:#000000;stroke-linecap:square;stroke-linejoin:miter;stroke-width:0.8;"/>
   </g>
   <g id="patch_5">
    <path d="M 57.6 307.584 
L 414.72 307.584 
" style="fill:none;stroke:#000000;stroke-linecap:square;stroke-linejoin:miter;stroke-width:0.8;"/>
   </g>
   <g id="patch_6">
    <path d="M 57.6 41.472 
L 414.72 41.472 
" style="fill:none;stroke:#000000;stroke-linecap:square;stroke-linejoin:miter;stroke-width:0.8;"/>
   </g>
   <g id="text_16">
    <text style="font-family:DejaVu Sans;font-size:12px;font-style:normal;font-weight:normal;text-anchor:middle;" transform="rotate(-0, 236.16, 35.472)" x="236.16" y="35.472">Coin Flips for pow(x,2/4)</text>
   </g>
   <g id="legend_1">
    <g id="patch_7">
     <path d="M 226.915312 78.82825 
L 407.72 78.82825 
Q 409.72 78.82825 409.72 76.82825 
L 409.72 48.472 
Q 409.72 46.472 407.72 46.472 
L 226.915312 46.472 
Q 224.915312 46.472 224.915312 48.472 
L 224.915312 76.82825 
Q 224.915312 78.82825 226.915312 78.82825 
z
" style="fill:#ffffff;opacity:0.8;stroke:#cccccc;stroke-linejoin:miter;"/>
    </g>
    <g id="line2d_16">
     <path d="M 228.915312 54.570437 
L 248.915312 54.570437 
" style="fill:none;stroke:#1f77b4;stroke-linecap:square;stroke-width:1.5;"/>
    </g>
    <g id="line2d_17"/>
    <g id="text_17">
     <text style="font-family:DejaVu Sans;font-size:10px;font-style:normal;font-weight:normal;text-anchor:start;" transform="rotate(-0, 256.915313, 58.070437)" x="256.915313" y="58.070437">Coin Flip Lower Bound</text>
    </g>
    <g id="line2d_18">
     <path d="M 228.915312 69.248562 
L 248.915312 69.248562 
" style="fill:none;stroke:#ff7f0e;stroke-linecap:square;stroke-width:1.5;"/>
    </g>
    <g id="line2d_19"/>
    <g id="text_18">
     <text style="font-family:DejaVu Sans;font-size:10px;font-style:normal;font-weight:normal;text-anchor:start;" transform="rotate(-0, 256.915313, 72.748562)" x="256.915313" y="72.748562">Avg. Coins Flipped pow(x,2/4)</text>
    </g>
   </g>
  </g>
 </g>
 <defs>
  <clipPath id="pc364b70b9c">
   <rect height="266.112" width="357.12" x="57.6" y="41.472"/>
  </clipPath>
 </defs>
</svg>

<svg height="460.8" viewBox="0 0 460.8 345.6" width="614.4" xmlns="http://www.w3.org/2000/svg" xmlns:xlink="http://www.w3.org/1999/xlink"><defs><style>*{stroke-linecap:butt;stroke-linejoin:round}</style></defs><g id="figure_1"><path d="M0 345.6h460.8V0H0z" fill="#fff" id="patch_1"/><g id="axes_1"><path d="M57.6 307.584h357.12V41.472H57.6z" fill="#fff" id="patch_2"/><g id="matplotlib.axis_1"><g id="xtick_1"><g id="line2d_1"><defs><path d="M0 0v3.5" id="m406693fe84" stroke="#000" stroke-width=".8"/></defs><use x="73.8" xlink:href="#m406693fe84" y="307.584" stroke="#000" stroke-width=".8"/></g><text x="73.8" y="322.182" font-family="DejaVu Sans" font-size="10" font-weight="400" text-anchor="middle" id="text_1">0.0</text></g><g id="xtick_2"><use x="138.744" xlink:href="#m406693fe84" y="307.584" stroke="#000" stroke-width=".8" id="line2d_2"/><text x="138.744" y="322.182" font-family="DejaVu Sans" font-size="10" font-weight="400" text-anchor="middle" id="text_2">0.2</text></g><g id="xtick_3"><use x="203.688" xlink:href="#m406693fe84" y="307.584" stroke="#000" stroke-width=".8" id="line2d_3"/><text x="203.688" y="322.182" font-family="DejaVu Sans" font-size="10" font-weight="400" text-anchor="middle" id="text_3">0.4</text></g><g id="xtick_4"><use x="268.632" xlink:href="#m406693fe84" y="307.584" stroke="#000" stroke-width=".8" id="line2d_4"/><text x="268.632" y="322.182" font-family="DejaVu Sans" font-size="10" font-weight="400" text-anchor="middle" id="text_4">0.6</text></g><g id="xtick_5"><use x="333.576" xlink:href="#m406693fe84" y="307.584" stroke="#000" stroke-width=".8" id="line2d_5"/><text x="333.576" y="322.182" font-family="DejaVu Sans" font-size="10" font-weight="400" text-anchor="middle" id="text_5">0.8</text></g><g id="xtick_6"><use x="398.52" xlink:href="#m406693fe84" y="307.584" stroke="#000" stroke-width=".8" id="line2d_6"/><text x="398.52" y="322.182" font-family="DejaVu Sans" font-size="10" font-weight="400" text-anchor="middle" id="text_6">1.0</text></g><text x="236.16" y="335.861" font-family="DejaVu Sans" font-size="10" font-weight="400" text-anchor="middle" id="text_7">Input Coin&apos;s Heads Probability (λ)</text></g><g id="matplotlib.axis_2"><g id="ytick_1"><g id="line2d_7"><defs><path d="M0 0h-3.5" id="m87747e8a4d" stroke="#000" stroke-width=".8"/></defs><use x="57.6" xlink:href="#m87747e8a4d" y="296.514" stroke="#000" stroke-width=".8"/></g><text x="50.6" y="300.313" font-family="DejaVu Sans" font-size="10" font-weight="400" text-anchor="end" id="text_8">0</text></g><g id="ytick_2"><use x="57.6" xlink:href="#m87747e8a4d" y="255.485" stroke="#000" stroke-width=".8" id="line2d_8"/><text x="50.6" y="259.285" font-family="DejaVu Sans" font-size="10" font-weight="400" text-anchor="end" id="text_9">20</text></g><g id="ytick_3"><use x="57.6" xlink:href="#m87747e8a4d" y="214.457" stroke="#000" stroke-width=".8" id="line2d_9"/><text x="50.6" y="218.256" font-family="DejaVu Sans" font-size="10" font-weight="400" text-anchor="end" id="text_10">40</text></g><g id="ytick_4"><use x="57.6" xlink:href="#m87747e8a4d" y="173.428" stroke="#000" stroke-width=".8" id="line2d_10"/><text x="50.6" y="177.228" font-family="DejaVu Sans" font-size="10" font-weight="400" text-anchor="end" id="text_11">60</text></g><g id="ytick_5"><use x="57.6" xlink:href="#m87747e8a4d" y="132.4" stroke="#000" stroke-width=".8" id="line2d_11"/><text x="50.6" y="136.199" font-family="DejaVu Sans" font-size="10" font-weight="400" text-anchor="end" id="text_12">80</text></g><g id="ytick_6"><use x="57.6" xlink:href="#m87747e8a4d" y="91.372" stroke="#000" stroke-width=".8" id="line2d_12"/><text x="50.6" y="95.171" font-family="DejaVu Sans" font-size="10" font-weight="400" text-anchor="end" id="text_13">100</text></g><g id="ytick_7"><use x="57.6" xlink:href="#m87747e8a4d" y="50.343" stroke="#000" stroke-width=".8" id="line2d_13"/><text x="50.6" y="54.142" font-family="DejaVu Sans" font-size="10" font-weight="400" text-anchor="end" id="text_14">120</text></g><text transform="rotate(-90 25.433 174.528)" x="25.433" y="174.528" font-family="DejaVu Sans" font-size="10" font-weight="400" text-anchor="middle" id="text_15">Coin Flips Needed</text></g><path clip-path="url(#pc364b70b9c)" d="M73.833 192.917l3.28 98.005 3.278 1.48 3.28.657 3.28.393 3.278.269 3.28.198 3.28.154 3.278.125 3.28.103 3.28.087 3.278.075 3.28.065 3.28.058 3.278.051 3.28.047 3.28.041 3.278.038 3.28.035 3.28.032 3.279.03 3.279.027 3.28.026 3.279.024 3.279.022 3.28.021 3.279.02 3.279.019 3.28.018 3.279.016 3.279.016 3.28.015 3.279.015 3.279.014 3.28.013 3.279.012 3.279.012 3.28.012 3.279.011 3.279.01 3.28.011 3.279.01 3.279.01 3.28.009 3.279.009 3.279.008 3.28.009 3.279.008 3.279.007 3.28.008 3.279.007 3.279.007 3.28.007 3.279.007 3.279.006 3.28.007 3.279.006 3.279.006 3.28.006 3.279.006 3.28.005 3.278.006 3.28.005 3.28.005 3.278.005 3.28.005 3.28.005 3.278.004 3.28.005 3.28.005 3.278.004 3.28.004 3.28.004 3.278.005 3.28.004 3.28.004 3.278.004 3.28.003 3.28.004 3.278.004 3.28.003 3.28.004 3.279.003 3.279.004 3.28.003 3.279.003 3.279.004 3.28.003 3.279.003 3.279.003 3.28.003 3.279.003 3.279.003 3.28.003 3.279.003 3.279.002 3.28.003 3.279.003 3.279.002 3.28.003" fill="none" stroke="#1f77b4" stroke-linecap="square" stroke-width="1.5" id="line2d_14"/><path clip-path="url(#pc364b70b9c)" d="M73.833 53.568l3.28 218.382 3.278 10.483 3.28 4.041 3.28-.078 3.278.808 3.28.218 3.28.488 3.278 1.346 3.28.771 3.28-.59 3.278 1.017 3.28.41 3.28-.48 3.278 1.272 3.28-.406 3.28.426 3.278-.599 3.28.628 3.28-.029 3.279.238 3.279.316 3.28-.102 3.279-.103 3.279.452 3.28.024 3.279.287 3.279-.41 3.28.082 3.279.394 3.279.18 3.28-.077 3.279-.082 3.279.114 3.28.177 3.279-.238 3.279.279 3.28-.037 3.279-.008 3.279.16 3.28-.095 3.279-.016 3.279.263 3.28-.03 3.279-.003 3.279.184 3.28-.106 3.279-.037 3.279.008 3.28.082 3.279.148 3.279-.164 3.28.032 3.279.087 3.279.127 3.28.008 3.279-.119 3.279.082 3.28-.086 3.279.135 3.28.136 3.278-.132 3.28.148 3.28-.041 3.278-.004 3.28.074 3.28.082 3.278-.082 3.28-.029 3.28.135 3.278.017 3.28-.094 3.28.135 3.278-.008 3.28-.095 3.28.05 3.278.028 3.28.041h3.28l3.278.07 3.28-.057 3.28.004 3.279.057 3.279.017 3.28.037 3.279.016 3.279-.004 3.28.004 3.279.025 3.279-.013 3.28.008 3.279.033 3.279-.004 3.28.008 3.279.017 3.279.024h3.28l3.279.025 3.279.008 3.28.004" fill="none" stroke="#ff7f0e" stroke-linecap="square" stroke-width="1.5" id="line2d_15"/><path d="M57.6 307.584V41.472" fill="none" stroke="#000" stroke-linecap="square" stroke-width=".8" id="patch_3"/><path d="M414.72 307.584V41.472" fill="none" stroke="#000" stroke-linecap="square" stroke-width=".8" id="patch_4"/><path d="M57.6 307.584h357.12" fill="none" stroke="#000" stroke-linecap="square" stroke-width=".8" id="patch_5"/><path d="M57.6 41.472h357.12" fill="none" stroke="#000" stroke-linecap="square" stroke-width=".8" id="patch_6"/><text x="236.16" y="35.472" font-family="DejaVu Sans" font-size="12" font-weight="400" text-anchor="middle" id="text_16">Coin Flips for pow(x,2/4)</text><g id="legend_1"><path d="M226.915 78.828H407.72q2 0 2-2V48.472q0-2-2-2H226.915q-2 0-2 2v28.356q0 2 2 2z" fill="#fff" opacity=".8" stroke="#ccc" id="patch_7"/><path d="M228.915 54.57h20" fill="none" stroke="#1f77b4" stroke-linecap="square" stroke-width="1.5" id="line2d_16"/><text x="256.915" y="58.07" font-family="DejaVu Sans" font-size="10" font-weight="400" id="text_17">Coin Flip Lower Bound</text><path d="M228.915 69.249h20" fill="none" stroke="#ff7f0e" stroke-linecap="square" stroke-width="1.5" id="line2d_18"/><text x="256.915" y="72.749" font-family="DejaVu Sans" font-size="10" font-weight="400" id="text_18">Avg. Coins Flipped pow(x,2/4)</text></g></g></g><defs><clipPath id="pc364b70b9c"><path d="M57.6 41.472h357.12v266.112H57.6z"/></clipPath></defs></svg>
